X:95
T: WENN ICH MAL ZU HAUS WERD SEIN
N: F0204
O: Europa, Mitteleuropa, Deutschland
R: Liebes - Lied, Scherz
M: 2/4
L: 1/16
K: C
 | C2G,2G,2E,2 | C2A,2G,4 |
G,2B,2B,2D2 | C2E2D4 |
D2G,2G,2G,2 | G,3A,A,4 |
A,2B,2B,2B,2 | B,3CC4 |
G,2A,2B,2C2 | D2E2F4 |
E2D2C2D2 | B,3CC4

@@@ Tune index: 5526
